static/assets/images/addons/logos/redis.svg

<svg width="16" height="16" viewBox="0 0 16 16" fill="none" xmlns="http://www.w3.org/2000/svg">
<g clip-path="url(#clip0_703_2687)">
<path d="M15.987 4.39591C15.987 4.7156 15.987 5.04675 15.987 5.36645C15.9955 5.43535 15.9797 5.50505 15.9421 5.5635C15.9046 5.6219 15.8477 5.6653 15.7815 5.68615L9.13622 8.31225L8.10862 8.7119C8.02052 8.7463 7.92272 8.7463 7.83457 8.7119L0.195993 5.6747C0.134611 5.6586 0.0811344 5.62085 0.0454518 5.56835C0.00976914 5.5159 -0.00570611 5.45225 0.00188777 5.38925C0.00188777 4.71561 0.00188777 4.04195 0.00188777 3.37971C-0.00564651 3.31372 0.0110397 3.24725 0.0488435 3.19264C0.0866474 3.13804 0.142996 3.09901 0.20741 3.08284C2.74219 2.07806 5.27697 1.06187 7.82317 0.0342538C7.87742 0.0116418 7.93567 0 7.99447 0C8.05322 0 8.11147 0.0116418 8.16572 0.0342538L15.7586 3.07142C15.7999 3.08064 15.8387 3.09823 15.8729 3.1231C15.907 3.14795 15.9357 3.17957 15.9571 3.21597C15.9785 3.25237 15.9922 3.29278 15.9973 3.3347C16.0025 3.37661 15.999 3.41914 15.987 3.45964C15.987 3.77934 15.987 4.11046 15.987 4.44158V4.39591ZM3.8954 2.62613C3.68243 2.61435 3.46897 2.61435 3.256 2.62613C2.92175 2.65159 2.60134 2.77025 2.33115 2.96866C2.27687 3.00251 2.23211 3.04963 2.20108 3.10556C2.17004 3.16149 2.15376 3.2244 2.15376 3.28836C2.15376 3.35233 2.17004 3.41524 2.20108 3.47117C2.23211 3.5271 2.27687 3.57421 2.33115 3.60807C2.48163 3.72123 2.6468 3.81342 2.82212 3.8821C3.55802 4.13997 4.35567 4.1639 5.10572 3.9506C5.31762 3.89133 5.51557 3.79041 5.68802 3.65374C5.73757 3.62302 5.77852 3.58016 5.80687 3.5292C5.83522 3.47825 5.85012 3.4209 5.85012 3.36258C5.85012 3.30427 5.83522 3.24692 5.80687 3.19597C5.77852 3.14501 5.73757 3.10214 5.68802 3.07142C5.57942 2.96747 5.45137 2.88599 5.31122 2.83165C4.8582 2.66748 4.37642 2.59755 3.8954 2.62613ZM13.8633 3.36829H13.7719L11.6824 2.53478C11.6197 2.51211 11.5511 2.51211 11.4883 2.53478L9.71857 3.23128L9.58152 3.3112L9.67287 3.36829L11.7738 4.22464C11.8404 4.24726 11.9127 4.24726 11.9793 4.22464L13.7034 3.45964L13.8633 3.36829ZM9.33032 1.17604L7.99447 1.39299C7.88207 1.4215 7.76432 1.4215 7.65192 1.39299L6.63572 0.98194H6.46442L6.80697 1.66702L5.29982 1.96388H5.41397L6.85267 2.08948C6.90162 2.08641 6.95027 2.0992 6.99137 2.12593C7.03252 2.15266 7.06392 2.19193 7.08102 2.23792L7.36647 2.82023C7.59482 2.62613 7.80032 2.44344 8.01727 2.28359C8.08807 2.22521 8.17672 2.19296 8.26847 2.19225L9.41027 2.28359H9.86697V2.24934L8.61102 1.75836L9.33032 1.17604ZM8.32557 5.9716L9.13622 4.37307L5.41397 4.74986L8.32557 5.9716Z" fill="#1971BD"/>
<path d="M0.00225531 10.4702L3.62174 11.9089L7.8007 13.5759C7.86025 13.6014 7.92435 13.6145 7.9891 13.6145C8.05385 13.6145 8.11795 13.6014 8.1775 13.5759L15.7361 10.5616L15.9874 10.4702C15.9874 10.4702 15.9874 10.5844 15.9874 10.6301C15.9874 11.2923 15.9874 11.9431 15.9874 12.6054C15.9975 12.6748 15.9807 12.7454 15.9403 12.8028C15.9 12.8601 15.8392 12.8998 15.7704 12.9137C13.2357 13.9185 10.7008 14.9346 8.15465 15.928C8.1023 15.9503 8.046 15.9618 7.9891 15.9618C7.9322 15.9618 7.8759 15.9503 7.82355 15.928L0.207778 12.9137C0.141539 12.8928 0.0846995 12.8494 0.0471493 12.791C0.00959895 12.7326 -0.00628685 12.6629 0.00225531 12.594C0.00225531 11.9431 0.00225531 11.2809 0.00225531 10.6301V10.4702Z" fill="#1971BD"/>
<path d="M0.00194712 6.88501L3.9868 8.41501L7.8004 9.93361C7.86115 9.96211 7.92739 9.97691 7.99449 9.97691C8.06159 9.97691 8.12789 9.96211 8.18859 9.93361L15.713 6.94211L15.987 6.88501C15.987 6.88501 15.987 6.97636 15.987 7.02201C15.987 7.69571 15.987 8.36936 15.987 9.03161C15.9946 9.09461 15.9792 9.15821 15.9435 9.21071C15.9078 9.26316 15.8543 9.30096 15.7929 9.31706L8.15434 12.2857C8.10199 12.308 8.04569 12.3195 7.98879 12.3195C7.93189 12.3195 7.8756 12.308 7.82325 12.2857L0.196052 9.25996C0.135871 9.24186 0.0837433 9.20361 0.0484043 9.15161C0.0130654 9.09966 -0.0033366 9.03711 0.00194712 8.97451C0.00194712 8.30086 0.00194712 7.63861 0.00194712 6.96496C0.00194712 6.88501 0.00194712 6.88501 0.00194712 6.88501Z" fill="#1971BD"/>
</g>
<defs>
<clipPath id="clip0_703_2687">
<rect width="16" height="16" fill="white"/>
</clipPath>
</defs>
</svg>

<svg xmlns="http://www.w3.org/2000/svg" width="16" height="16" fill="none" xmlns:v="https://vecta.io/nano"><g clip-path="url(#A)" fill="#1971bd"><path d="M15.987 4.396v.971c.008.069-.007.139-.045.197a.3.3 0 0 1-.161.123L9.136 8.312l-1.028.4a.38.38 0 0 1-.274 0L.196 5.675c-.061-.016-.115-.054-.151-.106s-.051-.116-.044-.179V3.38a.27.27 0 0 1 .047-.187c.038-.055.094-.094.159-.11L7.823.034C7.877.012 7.936 0 7.994 0s.117.012.171.034l7.593 3.037c.041.009.08.027.114.052a.3.3 0 0 1 .084.093c.021.037.035.077.04.119a.31.31 0 0 1-.01.125v.982-.046zM3.895 2.626a5.79 5.79 0 0 0-.639 0c-.334.025-.655.144-.925.343a.38.38 0 0 0-.13.137c-.031.056-.047.119-.047.183s.016.127.047.183a.38.38 0 0 0 .13.137 2.08 2.08 0 0 0 .491.274 3.78 3.78 0 0 0 2.284.069 1.64 1.64 0 0 0 .582-.297.34.34 0 0 0 .119-.125c.028-.051.043-.108.043-.167s-.015-.116-.043-.167a.34.34 0 0 0-.119-.125 1.14 1.14 0 0 0-.377-.24 3.54 3.54 0 0 0-1.416-.206zm9.968.742h-.091l-2.09-.834a.28.28 0 0 0-.194 0l-1.77.696-.137.08.091.057 2.101.856a.32.32 0 0 0 .206 0l1.724-.765.16-.091zM9.33 1.176l-1.336.217c-.112.029-.23.029-.343 0L6.636.982h-.171l.343.685-1.507.297h.114l1.439.126c.049-.003.098.01.139.036s.073.066.09.112l.285.582.651-.537a.4.4 0 0 1 .251-.091l1.142.091h.457v-.034l-1.256-.491.719-.582zM8.326 5.972l.811-1.599-3.722.377 2.912 1.222zM.002 10.47l3.619 1.439L7.8 13.576a.48.48 0 0 0 .377 0l7.559-3.014.251-.091v.16 1.975c.01.069-.007.14-.047.197s-.101.097-.17.111l-7.616 3.014a.43.43 0 0 1-.166.034c-.057 0-.113-.011-.166-.034L.208 12.914a.3.3 0 0 1-.161-.123c-.038-.059-.053-.128-.045-.197V10.63v-.16zm0-3.585l3.985 1.53L7.8 9.934c.061.028.127.043.194.043s.133-.015.194-.043l7.524-2.992.274-.057v.137 2.01c.008.063-.008.127-.043.179a.26.26 0 0 1-.151.106l-7.639 2.969a.43.43 0 0 1-.166.034c-.057 0-.113-.011-.166-.034L.196 9.26c-.06-.018-.112-.056-.148-.108s-.052-.114-.046-.177v-2.01-.08z"/></g><defs><clipPath id="A"><path fill="#fff" d="M0 0h16v16H0z"/></clipPath></defs></svg>
